X:64
T:Rugen
O:Norway
C:Traditional
L:1/16
M:2/4
Q:1/8=160
R:Turdans
K:F
% %rightmargin 11.5cm
"Intro"|\
"C"G>AB>G E>CD>E | "F".F2F2 F2 z2
% %rightmargin 2.78cm
%P:A
[| "F".F2F2 .F2F2 | "C7"E>FG>E C4 | .G2G2 .G2G2 | "F"A>Bc>A F2>F2 |
%P:B
|: "Bb"B>cd>B G2>B2 | "F"A>Bc>A F2>A2 | "C7"G>AB>G E>CD>E |
[1 "F"F2A>B c2c2 :|[2"F".F2F2 F2 z2 |]

